X:253
T:Fight About the Fireside
R:Reel
B:The Athole Collection
M:C|
L:1/8
K:C
c|GcEc Addc|GeEc GcEc|FcEc DddB|cGAF ECC:|
f|ecgc eddf|ecgc acgc|fage dcde|GAcd e2df|ecgc eddf|
ecgc acgc|fage dcde GAcd e2 dc||

